!!!OTL: ICH WEISS EINN JAEGER
!!!ARE: Europa, Mitteleuropa, Deutschland, Schlesien
!!!SCT: Z0185
!!!YEM: Copyright 1995, estate of Helmut Schaffrath.
**kern
*ICvox
*Ivox
*M6/8
*k[b-e-]
*B-:
{8f
=1
4b-
8dd
8cc
8cc
8b-
=2
4a
8b-
4.cc}
=3
{8.b-
16cc
8dd
8.dd
16cc
8b-
=4
[4.cc
4cc]}
{8dd
=5
8dd
8ee-
8ff
8ff
8ee-
8dd
=6
8cc
8ee-
8ee-
4.ee-}
=7
{8dd
8dd
8dd
8dd
8cc
8b-
=8
8a
8cc
8cc
4.cc}
=9
{8.b-
16cc
8dd
8dd
8cc
8b-
=10
[4.b-
4b-]}
==
!!!AGN: Soldaten -, Jaeger - Lied
!!!ONB: ESAC (Essen Associative Code) Database: ZUCCAL
!!!AMT: compound duple
!!!AIN: vox
!!!EED: Helmut Schaffrath
!!!EEV: 1.0
*-
